icon-themes/sifr_svg/cmd/lc_insertcellsright.svg

<svg viewBox="0 0 24 24" xmlns="http://www.w3.org/2000/svg"><g fill="#555753"><path d="m1 2v13h2v-1h1.2832031c-.1707306-.283573-.2832031-.610059-.2832031-1h-1v-4h5v3.068359l1 .914063v-3.982422h5v3h-1v1h-3.9804688l1.0937498 1h2.886719v4h-1v.240234l-.351562.300782c-.217407.185386-.8971.844543-1.535157 1.458984h2.886719v1h10v-9h-1v-10zm2 2h5v4h-5zm6 0h5v4h-5zm6 0h5v4h-5zm0 5h5v3h-5zm-10 3v1c0 .256892.12983.528462.3125.71875l2.3710938 2.28125h-6.6835938v2h6.6835938l-2.3710938 2.28125c-.18267.190301-.3094816.338903-.3125.71875v1h.4121094.5878906c.30945 0 .55232-.0903.75-.28125 1.016078-.769594 3.524849-3.321099 4.25-3.939453v-1.615235l-4.25-3.882812c-.19768-.19095-.44055-.28125-.75-.28125h-.5878906zm9 1h8v7h-8zm-13 6v1h3.3066406c.1012371-.17687.205925-.329568.2851563-.412109l.0136719-.013672.5976562-.574219z"/><path d="m22 20v-7h-8v7z" opacity=".35"/></g></svg>

<svg xmlns="http://www.w3.org/2000/svg" viewBox="0 0 24 24">
  <path
     style="fill:#555753"
     d="M 1 2 L 1 15 L 3 15 L 3 14 L 4.2832031 14 C 4.1124725 13.716427 4 13.389941 4 13 L 3 13 L 3 9 L 8 9 L 8 12.068359 L 9 12.982422 L 9 9 L 14 9 L 14 12 L 13 12 L 13 13 L 9.0195312 13 L 10.113281 14 L 13 14 L 13 18 L 12 18 L 12 18.240234 L 11.648438 18.541016 C 11.431031 18.726402 10.751338 19.385559 10.113281 20 L 13 20 L 13 21 L 23 21 L 23 12 L 22 12 L 22 2 L 1 2 z M 3 4 L 8 4 L 8 8 L 3 8 L 3 4 z M 9 4 L 14 4 L 14 8 L 9 8 L 9 4 z M 15 4 L 20 4 L 20 8 L 15 8 L 15 4 z M 15 9 L 20 9 L 20 12 L 15 12 L 15 9 z M 5 12 L 5 13 C 5 13.256892 5.12983 13.528462 5.3125 13.71875 L 7.6835938 16 L 1 16 L 1 18 L 7.6835938 18 L 5.3125 20.28125 C 5.12983 20.471551 5.0030184 20.620153 5 21 L 5 22 L 5.4121094 22 L 6 22 C 6.30945 22 6.55232 21.9097 6.75 21.71875 C 7.766078 20.949156 10.274849 18.397651 11 17.779297 L 11 16.164062 L 6.75 12.28125 C 6.55232 12.0903 6.30945 12 6 12 L 5.4121094 12 L 5 12 z M 14 13 L 22 13 L 22 20 L 14 20 L 14 13 z M 1 19 L 1 20 L 4.3066406 20 C 4.4078777 19.82313 4.5125656 19.670432 4.5917969 19.587891 L 4.6054688 19.574219 L 5.203125 19 L 1 19 z "
     />
  <path
     style="opacity:0.35;fill:#555753"
     d="m 22,20 v -7 l -8,0 0,7 z"
     />
</svg>
